X: 35616
T: Saely Kelly
R: reel
M: 4/4
K: Edorian
FA|B2E2 E2FA|B2E2 E2FG|A4 BAF2|A6 Bc|
dcBG B2Bc|dcBG B2 (3Bcd|efed cdcB|A2F2 F2 zA|
B2e2 e2fe|dedc B2FG|A4 BAF2|B6 Bc|
d2d2 ed (3Bcd|e2ed fz zf|edBA BAGF|E2ED E2:|
FE|D2D2 D2 zA|GFED FGA2|BdBA FAFE|D2B2 B2 zd|
edef e2B2|dcde d2 ze|fedc edcB|dcBA B2c2|
dcde d2e2|fefg a2f2|e2e d/ e/ fedB|e6 fe|
def2 Bcd2|BAFE D2B2|D2FA BAGF|E2 ED E2|

